X: 34060
T: Reel De La Main Blanche
R: reel
M: 4/4
K: Fmajor
c2 d2 e2||f2AB AGFA|c2cd cAFA|B/A/BGB AFGA|[M:6/4] GFEF G2 c2 d2 e2|
[M:4/4] f2AB AGFA|c2cd cAFA|B/A/B GB AFGA|1 [M:6/4] GFEF G2 c2 d2 e2:|2 [M:4/4] GFEG F2F2||
f2cf Acfa|g2eg cdef|g2eg gefg|a2f2 g/f/e fg|
a2f2 fed2|c2 Ac FcAc|B2GB AGFA|GFEG F2F2|
f2cf Acfa|g2eg cdef|g2gg cefg|a2f2 g/f/e fg|
a2f2 fed2|c2 Ac FcAc|B2GB AGFA|[M:6/4] GFEG F2 c2 d2 e2||

